X:1
T: Bide Ye Yet
C:
R:Jig
Q:180
K:F
M:6/8
L:1/16
|:c2|A3GA2 F4G2|A2B2c2 B2A2G2|A3GA2 F4G2|A4d2 d4cB|
A3GA2 F4G2|A4c2 B2A2G2|A4d2 d3ef2|A4d2 d4A2|
A4d2 d3ef2|A4c2 c4B2|A4d2 d3ef2|A4d2 d4cB|
A4f2 f3ga2|A4c2 c4B2|A4G2 F4G2|A4d2 d4:|
